X:6
T:A'Body loo's me
M:C|
L:1/8
K:D
d3e B/B/B e2|d3a f/f/f f2|gfed Bdeg|agfe d2D2:|
(dD)(AF) E/E/E ef|dDDf dDDf|(dD)(AF) E/E/E e2|dDAB defd|BdAF E/E/E eg|agfe d2D2:|

% @@@@@@@@@@@@@@@@@@@@@@@@@@@@@@@@@@

%%  7. ===============================================================================

% ==================
% @THE DRUNKEN WIVES@
%      ~ in  ~
%  ^Pearson's Closs.^
% ==================
%
% *SETT and cast off one pair; sett again, the Man casts down, the Woman up,
% *Reel across, sett, and turn your Partner.  *SETT cross Partners.  *Lead out
% at both Sides.

% @@@@@@@@@@@@@@@@@@@@@@@@@@@@@@@@@@

